assets/img/chevron_down.svg

<?xml version="1.0" encoding="UTF-8" standalone="no"?>
<svg width="10px" height="7px" viewBox="466 379 16 10" version="1.1" xmlns="http://www.w3.org/2000/svg">
  <path d="M466,380.662352 L466.831376,379.831177 L467.662753,379 L470.682999,382.019973 L473.703245,385.039946 L476.712819,382.030427 L479.722393,379.020908 L480.543168,379.841692 L481.363941,380.662473 L477.528381,384.498199 C475.418823,386.607848 473.68802,388.333924 473.682153,388.333924 C473.676286,388.333924 471.945402,386.607821 469.835744,384.498138 L466,380.662352 Z" stroke="none" fill="#22C5D8" fill-rule="nonzero"></path>
</svg>

<?xml version="1.0" encoding="UTF-8" standalone="no"?><svg width="10" height="7" viewBox="466 379 16 10" xmlns="http://www.w3.org/2000/svg"><path d="M466 380.662l.831-.83.832-.832 3.02 3.02 3.02 3.02 3.01-3.01 3.01-3.01.82.822.82.82-3.835 3.836c-2.11 2.11-3.84 3.836-3.846 3.836-.006 0-1.737-1.726-3.846-3.836L466 380.662z" fill="#22C5D8"/></svg>
